X: 709
T: Katy Did
B: jims roots
M:4/4
Q: 1/4=100
K:C
V:1 
%R: Reel
|: "C"J[e4e4]cdcA | GcAG EC2D | C2 CD EFGc | Ac2 "G"[c2a2][B3g3] |
"C"J[e4e4]cdcA | GcAG EC2D | C2 CD EFGc | "G"Ac2 d"C"c4:|
|: eg | "Am"abag edeg | abag edeg | abag eage |"C"cAcd c2 :|
% abcbook-tune_id 6298c25d2119206af2d45f98


% abcbook-boost 0
% abcbook-tablature 
% abcbook-transpose 
% abcbook-lastupdated 1654178399425
% abcbook-soundfonts 
% abcbook-repeats 1


